;FLAVOR:Marlin
;TIME:1673
;Filament used: 1.02985m
;Layer height: 0.2
;MINX:66.5
;MINY:91
;MINZ:0.2
;MAXX:156.698
;MAXY:130
;MAXZ:16
;TARGET_MACHINE.NAME:Creality Ender-3 V3 SE
;Generated with Cura_SteamEngine 5.7.2
M104 S250
M105
M109 S250
M82 ;absolute extrusion mode
M220 S100 ;Reset Feedrate
M221 S100 ;Reset Flowrate

G28 ;Home
;G29 ;ABL

M420 S1; Use saved mesh leveling data

G92 E0 ;Reset Extruder
G1 Z2.0 F3000 ;Move Z Axis up
G1 X-3 Y20 Z0.28 F5000.0 ;Move to start position
M190 S70 ; Set bed temperature and wait
M109 S250.0 ; Set hotend temperature and wait
G1 X-3 Y100.0 Z0.28 F1500.0 E15 ;Draw the first line
G1 X-2 Y100.0 Z0.28 F5000.0 ;Move to side a little
G1 X-2 Y20 Z0.28 F1500.0 E30 ;Draw the second line
G92 E0 ;Reset Extruder
G1 E-1.0000 F1800 ;Retract a bit
G1 Z2.0 F3000 ;Move Z Axis up
G1 E0.0000 F1800
G92 E0
G92 E0
G1 F2400 E-0.8
;LAYER_COUNT:80
;LAYER:0
M107
G0 F9000 X70.676 Y93.39 Z0.2
;TYPE:SKIRT
G1 F2400 E0
G1 F1800 X71.495 Y92.799 E0.03359
G1 X72.302 Y92.32 E0.0648
G1 X73.18 Y91.898 E0.09721
G1 X74.125 Y91.543 E0.13078
G1 X75.029 Y91.293 E0.16198
G1 X76.031 Y91.109 E0.19586
G1 X77.181 Y91.014 E0.23424
G1 X77.83 Y91 E0.25583
G1 X83.962 Y91.001 E0.45978
G1 X84.706 Y91.013 E0.48453
G1 X85.441 Y91.05 E0.50901
G1 X88.113 Y91.279 E0.5982
G1 X90.578 Y91.417 E0.68032
G1 X94.524 Y91.5 E0.81159
G1 X142.951 Y91.501 E2.42228
G1 X143.687 Y91.513 E2.44676
G1 X144.659 Y91.572 E2.47915
G1 X145.622 Y91.718 E2.51155
G1 X146.57 Y91.949 E2.544
G1 X147.426 Y92.237 E2.57404
G1 X148.382 Y92.656 E2.60876
G1 X149.235 Y93.127 E2.64116
G1 X150.042 Y93.672 E2.67355
G1 X150.797 Y94.285 E2.7059
G1 X151.496 Y94.963 E2.73829
G1 X152.137 Y95.705 E2.7709
G1 X152.772 Y96.6 E2.8074
G1 X153.199 Y97.269 E2.8338
G1 X154.517 Y99.287 E2.91396
G1 X155.088 Y100.278 E2.952
G1 X155.457 Y101.034 E2.97998
G1 X155.666 Y101.5 E2.99697
G1 X155.999 Y102.339 E3.02699
G1 X156.299 Y103.347 E3.06197
G1 X156.505 Y104.402 E3.09773
G1 X156.589 Y105.006 E3.11801
G1 X156.687 Y106.286 E3.16071
G1 X156.698 Y107.329 E3.1954
G1 X156.658 Y109.681 E3.27364
G1 X156.661 Y112.466 E3.36627
G1 X156.695 Y114.573 E3.43635
G1 X156.682 Y115.494 E3.46699
G1 X156.617 Y116.466 E3.49939
G1 X156.466 Y117.429 E3.53181
G1 X156.234 Y118.362 E3.56379
G1 X156.007 Y119.059 E3.58817
G1 X155.632 Y120.046 E3.62329
G1 X155.231 Y120.944 E3.656
G1 X154.642 Y121.978 E3.69558
G1 X153.674 Y123.468 E3.75467
G1 X152.787 Y124.877 E3.81005
G1 X152.273 Y125.62 E3.8401
G1 X151.605 Y126.421 E3.87479
G1 X150.968 Y127.061 E3.90482
G1 X150.166 Y127.735 E3.93967
G1 X149.369 Y128.29 E3.97197
G1 X148.586 Y128.741 E4.00202
G1 X147.669 Y129.166 E4.03564
G1 X146.718 Y129.505 E4.06922
G1 X145.776 Y129.748 E4.10157
G1 X144.815 Y129.909 E4.13398
G1 X143.875 Y129.982 E4.16534
G1 X143.187 Y129.999 E4.18823
G1 X139.188 Y130 E4.32124
G1 X138.308 Y129.987 E4.35051
G1 X137.334 Y129.928 E4.38297
G1 X136.407 Y129.788 E4.41415
G1 X135.454 Y129.558 E4.44675
G1 X134.149 Y129.091 E4.49285
G1 X133.556 Y128.834 E4.51435
G1 X131.096 Y127.806 E4.60303
G1 X128.714 Y126.889 E4.68792
G1 X126.437 Y126.086 E4.76823
G1 X123.972 Y125.294 E4.85434
G1 X121.574 Y124.595 E4.93742
G1 X119.139 Y123.963 E5.02109
G1 X116.693 Y123.4 E5.10457
G1 X114.175 Y122.894 E5.18999
G1 X111.748 Y122.48 E5.27188
G1 X109.239 Y122.122 E5.35618
G1 X106.743 Y121.84 E5.43972
G1 X104.245 Y121.625 E5.52311
G1 X101.775 Y121.486 E5.6054
G1 X97.823 Y121.402 E5.73687
G1 X85.83 Y121.399 E6.13576
G1 X85.09 Y121.386 E6.16037
G1 X84.132 Y121.328 E6.1923
G1 X83.593 Y121.256 E6.21038
G1 X82.572 Y121.096 E6.24476
G1 X79.997 Y120.729 E6.33127
G1 X77.402 Y120.435 E6.41813
G1 X76.384 Y120.333 E6.45216
G1 X75.421 Y120.19 E6.48454
G1 X74.473 Y119.963 E6.51696
G1 X73.55 Y119.653 E6.54934
G1 X72.657 Y119.262 E6.58177
G1 X71.804 Y118.795 E6.61411
G1 X70.995 Y118.253 E6.6465
G1 X70.236 Y117.643 E6.67889
G1 X69.559 Y116.993 E6.7101
G1 X68.895 Y116.232 E6.74369
G1 X68.343 Y115.472 E6.77494
G1 X67.825 Y114.607 E6.80847
G1 X67.401 Y113.73 E6.84087
G1 X67.057 Y112.819 E6.87326
G1 X66.795 Y111.881 E6.90565
G1 X66.615 Y110.913 E6.9384
G1 X66.515 Y109.735 E6.97772
G1 X66.5 Y109.058 E7.00024
G1 X66.501 Y102.527 E7.21746
G1 X66.513 Y101.812 E7.24125
G1 X66.572 Y100.838 E7.2737
G1 X66.719 Y99.877 E7.30604
G1 X66.95 Y98.93 E7.33846
G1 X67.251 Y98.042 E7.36964
G1 X67.657 Y97.117 E7.40324
G1 X68.092 Y96.325 E7.4333
G1 X68.674 Y95.458 E7.46803
G1 X69.265 Y94.728 E7.49927
G1 X69.967 Y94.003 E7.53283
G1 X70.676 Y93.39 E7.564
G0 F9000 X70.938 Y93.693
G1 F1800 X71.7 Y93.143 E7.59526
G1 X72.475 Y92.681 E7.62527
G1 X73.353 Y92.259 E7.65767
G1 X74.232 Y91.929 E7.6889
G1 X75.136 Y91.679 E7.72009
G1 X76.064 Y91.508 E7.75148
G1 X77.214 Y91.413 E7.78986
G1 X77.83 Y91.4 E7.81035
G1 X83.955 Y91.401 E8.01407
G1 X84.686 Y91.413 E8.03839
G1 X85.407 Y91.449 E8.0624
G1 X88.079 Y91.677 E8.15159
G1 X90.57 Y91.817 E8.23457
G1 X94.516 Y91.9 E8.36585
G1 X142.945 Y91.901 E9.9766
G1 X143.663 Y91.912 E10.00048
G1 X144.6 Y91.968 E10.03171
G1 X145.528 Y92.107 E10.06291
G1 X146.442 Y92.328 E10.09419
G1 X147.298 Y92.616 E10.12423
G1 X148.189 Y93.006 E10.15658
G1 X149.012 Y93.459 E10.18782
G1 X149.79 Y93.983 E10.21902
G1 X150.519 Y94.573 E10.25022
G1 X151.194 Y95.225 E10.28143
G1 X151.811 Y95.937 E10.31277
G1 X152.435 Y96.815 E10.34859
G1 X152.864 Y97.488 E10.37514
G1 X154.17 Y99.487 E10.45456
G1 X154.741 Y100.478 E10.4926
G1 X155.092 Y101.198 E10.51924
G1 X155.294 Y101.648 E10.53564
G1 X155.627 Y102.487 E10.56567
G1 X155.906 Y103.424 E10.59818
G1 X156.112 Y104.479 E10.63394
G1 X156.19 Y105.037 E10.65267
G1 X156.288 Y106.317 E10.69537
G1 X156.298 Y107.322 E10.7288
G1 X156.258 Y109.674 E10.80704
G1 X156.261 Y112.466 E10.8999
G1 X156.295 Y114.568 E10.96982
G1 X156.283 Y115.468 E10.99976
G1 X156.222 Y116.405 E11.03099
G1 X156.078 Y117.333 E11.06223
G1 X155.854 Y118.238 E11.09323
G1 X155.633 Y118.917 E11.11698
G1 X155.266 Y119.884 E11.15139
G1 X154.883 Y120.746 E11.18276
G1 X154.294 Y121.78 E11.22234
G1 X153.339 Y123.25 E11.28064
G1 X152.458 Y124.649 E11.33563
G1 X151.944 Y125.392 E11.36568
G1 X151.321 Y126.139 E11.39803
G1 X150.684 Y126.779 E11.42806
G1 X149.937 Y127.407 E11.46052
G1 X149.169 Y127.943 E11.49167
G1 X148.386 Y128.394 E11.52173
G1 X147.534 Y128.789 E11.55296
G1 X146.617 Y129.118 E11.58537
G1 X145.709 Y129.354 E11.61657
G1 X144.784 Y129.51 E11.64777
G1 X143.865 Y129.582 E11.67843
G1 X143.187 Y129.599 E11.70099
G1 X139.194 Y129.6 E11.83379
G1 X138.332 Y129.588 E11.86247
G1 X137.394 Y129.532 E11.89372
G1 X136.467 Y129.392 E11.9249
G1 X135.589 Y129.181 E11.95494
G1 X134.284 Y128.714 E12.00104
G1 X133.715 Y128.467 E12.02167
G1 X131.25 Y127.437 E12.11052
G1 X128.858 Y126.516 E12.19577
G1 X126.559 Y125.705 E12.27686
G1 X124.094 Y124.913 E12.36297
G1 X121.681 Y124.21 E12.44657
G1 X119.229 Y123.573 E12.53083
G1 X116.783 Y123.01 E12.61431
G1 X114.254 Y122.502 E12.7001
G1 X111.805 Y122.084 E12.78274
G1 X109.296 Y121.726 E12.86703
G1 X106.777 Y121.441 E12.95135
G1 X104.279 Y121.227 E13.03473
G1 X101.784 Y121.086 E13.11785
G1 X97.832 Y121.002 E13.24933
G1 X85.837 Y120.999 E13.64828
G1 X85.114 Y120.987 E13.67233
G1 X84.184 Y120.931 E13.70332
G1 X83.655 Y120.861 E13.72107
G1 X82.628 Y120.7 E13.75564
G1 X80.053 Y120.333 E13.84215
G1 X77.442 Y120.037 E13.92955
G1 X76.442 Y119.937 E13.96298
G1 X75.513 Y119.801 E13.99421
G1 X74.6 Y119.584 E14.02542
G1 X73.71 Y119.286 E14.05663
G1 X72.849 Y118.911 E14.08787
G1 X72.026 Y118.462 E14.11905
G1 X71.245 Y117.941 E14.15028
G1 X70.513 Y117.354 E14.18148
G1 X69.836 Y116.704 E14.2127
G1 X69.219 Y115.997 E14.24391
G1 X68.667 Y115.237 E14.27515
G1 X68.185 Y114.432 E14.30636
G1 X67.775 Y113.588 E14.33757
G1 X67.442 Y112.711 E14.36877
G1 X67.188 Y111.807 E14.4
G1 X67.014 Y110.879 E14.4314
G1 X66.914 Y109.701 E14.47072
G1 X66.9 Y109.058 E14.49212
G1 X66.901 Y102.533 E14.70914
G1 X66.912 Y101.836 E14.73232
G1 X66.968 Y100.898 E14.76358
G1 X67.108 Y99.971 E14.79476
G1 X67.329 Y99.058 E14.826
G1 X67.618 Y98.202 E14.85605
G1 X68.008 Y97.31 E14.88843
G1 X68.443 Y96.518 E14.91849
G1 X68.985 Y95.71 E14.95085
G1 X69.576 Y94.98 E14.98209
G1 X70.229 Y94.306 E15.0133
G1 X70.938 Y93.693 E15.04447
G0 F9000 X71.173 Y94.017
G1 F1800 X71.905 Y93.487 E15.07453
G1 X72.68 Y93.025 E15.10454
G1 X73.494 Y92.633 E15.13459
G1 X74.339 Y92.314 E15.16463
G1 X75.209 Y92.072 E15.19466
G1 X76.097 Y91.907 E15.2247
G1 X77.223 Y91.813 E15.26229
G1 X77.83 Y91.8 E15.28248
G1 X83.949 Y91.801 E15.486
G1 X84.666 Y91.812 E15.50985
G1 X85.373 Y91.848 E15.53339
G1 X88.045 Y92.075 E15.62259
G1 X90.562 Y92.217 E15.70643
G1 X94.508 Y92.3 E15.83771
G1 X142.939 Y92.301 E17.44853
G1 X143.64 Y92.311 E17.47185
G1 X144.542 Y92.364 E17.5019
G1 X145.435 Y92.496 E17.53192
G1 X146.314 Y92.707 E17.56199
G1 X147.17 Y92.995 E17.59203
G1 X147.997 Y93.357 E17.62205
G1 X148.789 Y93.791 E17.65209
G1 X149.539 Y94.294 E17.68213
G1 X150.242 Y94.861 E17.71217
G1 X150.892 Y95.487 E17.74218
G1 X151.485 Y96.169 E17.77224
G1 X152.098 Y97.03 E17.80739
G1 X152.529 Y97.707 E17.83409
G1 X153.823 Y99.687 E17.91276
G1 X154.394 Y100.678 E17.9508
G1 X154.727 Y101.362 E17.9761
G1 X154.922 Y101.796 E17.99193
G1 X155.255 Y102.635 E18.02195
G1 X155.513 Y103.501 E18.052
G1 X155.719 Y104.556 E18.08776
G1 X155.791 Y105.068 E18.10495
G1 X155.889 Y106.348 E18.14765
G1 X155.898 Y107.315 E18.17981
G1 X155.858 Y109.667 E18.25805
G1 X155.861 Y112.466 E18.35115
G1 X155.895 Y114.563 E18.4209
G1 X155.884 Y115.443 E18.45018
G1 X155.827 Y116.344 E18.4802
G1 X155.69 Y117.237 E18.51025
G1 X155.474 Y118.114 E18.54029
G1 X155.259 Y118.775 E18.56341
G1 X154.9 Y119.722 E18.5971
G1 X154.535 Y120.548 E18.62713
G1 X153.946 Y121.582 E18.66671
G1 X153 Y123.037 E18.72443
G1 X152.129 Y124.421 E18.77882
G1 X151.615 Y125.164 E18.80887
G1 X151.037 Y125.857 E18.83889
G1 X150.4 Y126.497 E18.86892
G1 X149.708 Y127.079 E18.89899
G1 X148.969 Y127.596 E18.92899
G1 X148.186 Y128.047 E18.95904
G1 X147.366 Y128.426 E18.98909
G1 X146.516 Y128.731 E19.01913
G1 X145.642 Y128.96 E19.04918
G1 X144.752 Y129.111 E19.0792
G1 X143.855 Y129.182 E19.10913
G1 X143.187 Y129.199 E19.13135
G1 X139.199 Y129.2 E19.264
G1 X138.355 Y129.189 E19.29207
G1 X137.453 Y129.136 E19.32212
G1 X136.56 Y129.003 E19.35215
G1 X135.682 Y128.792 E19.38218
G1 X134.443 Y128.347 E19.42597
G1 X133.874 Y128.1 E19.4466
G1 X131.404 Y127.068 E19.53564
G1 X129.002 Y126.143 E19.62125
G1 X126.681 Y125.324 E19.70311
G1 X124.216 Y124.532 E19.78922
G1 X121.789 Y123.825 E19.8733
G1 X119.319 Y123.183 E19.95818
G1 X116.873 Y122.62 E20.04166
G1 X114.333 Y122.11 E20.12783
G1 X111.862 Y121.688 E20.21121
G1 X109.353 Y121.33 E20.2955
G1 X106.811 Y121.042 E20.38059
G1 X104.313 Y120.829 E20.46398
G1 X101.793 Y120.686 E20.54793
G1 X97.841 Y120.602 E20.6794
G1 X85.843 Y120.599 E21.07845
G1 X85.138 Y120.588 E21.10191
G1 X84.236 Y120.534 E21.13196
G1 X83.717 Y120.466 E21.14937
G1 X82.684 Y120.304 E21.18415
G1 X80.109 Y119.937 E21.27066
G1 X77.482 Y119.639 E21.35859
G1 X76.499 Y119.541 E21.39145
G1 X75.605 Y119.412 E21.42149
G1 X74.726 Y119.204 E21.45153
G1 X73.869 Y118.919 E21.48157
G1 X73.04 Y118.56 E21.51162
G1 X72.247 Y118.129 E21.54164
G1 X71.495 Y117.629 E21.57168
G1 X70.79 Y117.065 E21.6017
G1 X70.137 Y116.44 E21.63177
G1 X69.542 Y115.761 E21.6618
G1 X69.01 Y115.031 E21.69184
G1 X68.545 Y114.257 E21.72187
G1 X68.149 Y113.445 E21.75192
G1 X67.827 Y112.602 E21.78193
G1 X67.581 Y111.733 E21.81197
G1 X67.413 Y110.845 E21.84203
G1 X67.313 Y109.667 E21.88135
G1 X67.3 Y109.058 E21.90161
G1 X67.301 Y102.539 E22.11843
G1 X67.311 Y101.859 E22.14105
G1 X67.364 Y100.957 E22.17111
G1 X67.497 Y100.064 E22.20114
G1 X67.708 Y99.186 E22.23117
G1 X67.997 Y98.33 E22.26122
G1 X68.359 Y97.503 E22.29124
G1 X68.794 Y96.711 E22.3213
G1 X69.296 Y95.961 E22.35132
G1 X69.864 Y95.258 E22.38138
G1 X70.491 Y94.608 E22.41141
G1 X71.173 Y94.017 E22.44143
G1 F2400 E21.64143
G0 F9000 X85.153 Y101.347
G0 X85.687 Y102.7
G1 F2400 E22.44143
G1 F1800 X143.301 Y102.7 E24.35768
G1 X143.301 Y102.883 E24.36376
G1 X143.314 Y102.955 E24.3662
G1 X143.546 Y103.558 E24.38769
G1 X143.559 Y103.585 E24.38868
G1 X143.82 Y104.044 E24.40625
G1 X143.839 Y104.071 E24.40734
G1 X144.113 Y104.409 E24.42182
G1 X144.125 Y104.423 E24.42243
G1 X144.383 Y104.685 E24.43466
G1 X144.393 Y104.694 E24.43511
G1 X144.653 Y104.926 E24.4467
G1 X144.658 Y104.931 E24.44693
G1 X145.026 Y105.237 E24.46285
G1 X145.124 Y105.371 E24.46837
G1 X145.434 Y106.032 E24.49265
G1 X145.5 Y106.502 E24.50844
G1 X145.498 Y107.806 E24.55181
G1 X145.227 Y108.47 E24.57566
G1 X144.578 Y109.28 E24.61019
G1 X144.568 Y109.293 E24.61073
G1 X144.383 Y109.567 E24.62173
G1 X144.368 Y109.593 E24.62273
G1 X144.197 Y109.954 E24.63601
G1 X144.185 Y109.987 E24.63718
G1 X144.087 Y110.342 E24.64943
G1 X144.08 Y110.393 E24.65114
G1 X144.075 Y111.055 E24.67316
G1 X144.083 Y111.111 E24.67504
G1 X144.258 Y111.729 E24.6964
G1 X144.275 Y111.771 E24.69791
G1 X144.494 Y112.169 E24.71302
G1 X144.509 Y112.193 E24.71396
G1 X144.688 Y112.432 E24.72389
G1 X144.698 Y112.444 E24.72441
G1 X144.9 Y112.674 E24.73459
G1 X145.134 Y112.964 E24.74699
G1 X145.39 Y113.438 E24.76491
G1 X145.5 Y113.97 E24.78297
G1 X145.497 Y115.207 E24.82412
G1 X145.228 Y115.926 E24.84965
G1 X144.884 Y116.336 E24.86745
G1 X144.602 Y116.569 E24.87962
G1 X144.252 Y116.811 E24.89377
G1 X144.233 Y116.825 E24.89456
G1 X144.001 Y117.031 E24.90487
G1 X143.982 Y117.05 E24.90577
G1 X143.783 Y117.281 E24.91591
G1 X143.763 Y117.309 E24.91705
G1 X143.579 Y117.616 E24.92896
G1 X143.565 Y117.647 E24.93009
G1 X143.407 Y118.054 E24.94461
G1 X143.398 Y118.084 E24.94565
G1 X143.306 Y118.509 E24.96011
G1 X143.301 Y118.551 E24.96152
G1 X143.301 Y118.799 E24.96977
G1 X138.698 Y118.8 E25.12287
G1 X138.696 Y118.532 E25.13178
G1 X138.692 Y118.493 E25.13308
G1 X138.637 Y118.225 E25.14218
G1 X138.633 Y118.208 E25.14276
G1 X138.547 Y117.917 E25.15286
G1 X138.535 Y117.887 E25.15393
G1 X138.358 Y117.521 E25.16745
G1 X138.341 Y117.492 E25.16857
G1 X138.097 Y117.15 E25.18255
G1 X138.072 Y117.121 E25.18382
G1 X137.803 Y116.865 E25.19617
G1 X137.783 Y116.848 E25.19704
G1 X137.503 Y116.644 E25.20857
G1 X136.992 Y116.233 E25.23038
G1 X136.912 Y116.136 E25.23456
G1 X136.609 Y115.566 E25.25603
G1 X136.5 Y115.035 E25.27406
G1 X136.503 Y113.781 E25.31577
G1 X136.538 Y113.629 E25.32095
G1 X136.541 Y113.612 E25.32153
G1 X136.589 Y113.274 E25.33288
G1 X136.591 Y113.251 E25.33365
G1 X136.598 Y112.978 E25.34273
G1 X136.596 Y112.948 E25.34373
G1 X136.546 Y112.555 E25.35691
G1 X136.537 Y112.515 E25.35827
G1 X136.406 Y112.136 E25.37161
G1 X136.39 Y112.1 E25.37292
G1 X136.187 Y111.754 E25.38626
G1 X136.163 Y111.722 E25.38759
G1 X135.899 Y111.426 E25.40079
G1 X135.87 Y111.399 E25.4021
G1 X135.548 Y111.158 E25.41548
G1 X135.522 Y111.142 E25.4165
G1 X135.208 Y110.974 E25.42834
G1 X135.183 Y110.962 E25.42926
G1 X134.935 Y110.871 E25.43805
G1 X134.92 Y110.866 E25.43858
G1 X134.625 Y110.784 E25.44876
G1 X134.612 Y110.781 E25.4492
G1 X132.317 Y110.296 E25.52722
G1 X132.306 Y110.294 E25.52759
G1 X131.897 Y110.233 E25.54135
G1 X131.885 Y110.232 E25.54175
G1 X131.609 Y110.207 E25.55097
G1 X131.591 Y110.206 E25.55156
G1 X85.5 Y110.2 E27.08456
G1 X85.5 Y102.869 E27.32839
G1 X85.533 Y102.864 E27.3295
G1 X85.643 Y102.807 E27.33362
G1 X85.687 Y102.7 E27.33747
G0 F9000 X85.901 Y103.1
G1 F1800 X142.942 Y103.1 E29.23466
G1 X143.173 Y103.701 E29.25607
G1 X143.211 Y103.783 E29.25908
G1 X143.472 Y104.242 E29.27664
G1 X143.528 Y104.323 E29.27992
G1 X143.802 Y104.661 E29.29439
G1 X143.84 Y104.704 E29.2963
G1 X144.098 Y104.966 E29.30853
G1 X144.127 Y104.993 E29.30984
G1 X144.387 Y105.225 E29.32143
G1 X144.403 Y105.239 E29.32214
G1 X144.734 Y105.513 E29.33643
G1 X144.777 Y105.573 E29.33889
G1 X145.047 Y106.147 E29.35999
G1 X145.1 Y106.528 E29.37278
G1 X145.098 Y107.728 E29.41269
G1 X144.879 Y108.265 E29.43198
G1 X144.266 Y109.03 E29.46459
G1 X144.237 Y109.069 E29.4662
G1 X144.052 Y109.343 E29.4772
G1 X144.007 Y109.422 E29.48022
G1 X143.836 Y109.783 E29.49351
G1 X143.8 Y109.88 E29.49695
G1 X143.702 Y110.235 E29.5092
G1 X143.68 Y110.39 E29.51441
G1 X143.675 Y111.052 E29.53642
G1 X143.698 Y111.22 E29.54206
G1 X143.873 Y111.838 E29.56343
G1 X143.924 Y111.964 E29.56795
