;FLAVOR:Marlin
;TIME:12723
;Filament used: 11.4183m
;Layer height: 0.2
;MINX:47.667
;MINY:62.005
;MINZ:0.2
;MAXX:155.585
;MAXY:148.151
;MAXZ:53
;TARGET_MACHINE.NAME:Creality Ender-3 V3 SE
;Generated with Cura_SteamEngine 5.7.2
M104 S250
M105
M109 S250
M82 ;absolute extrusion mode
M220 S100 ;Reset Feedrate
M221 S100 ;Reset Flowrate

G28 ;Home
;G29 ;ABL

M420 S1; Use saved mesh leveling data

G92 E0 ;Reset Extruder
G1 Z2.0 F3000 ;Move Z Axis up
G1 X-3 Y20 Z0.28 F5000.0 ;Move to start position
M190 S70 ; Set bed temperature and wait
M109 S250.0 ; Set hotend temperature and wait
G1 X-3 Y100.0 Z0.28 F1500.0 E15 ;Draw the first line
G1 X-2 Y100.0 Z0.28 F5000.0 ;Move to side a little
G1 X-2 Y20 Z0.28 F1500.0 E30 ;Draw the second line
G92 E0 ;Reset Extruder
G1 E-1.0000 F1800 ;Retract a bit
G1 Z2.0 F3000 ;Move Z Axis up
G1 E0.0000 F1800
G92 E0
G92 E0
G1 F2400 E-0.8
;LAYER_COUNT:265
;LAYER:0
M107
G0 F9000 X50.229 Y63.452 Z0.2
;TYPE:SKIRT
G1 F2400 E0
G1 F1800 X51.535 Y62.644 E0.05108
G1 X53.004 Y62.141 E0.10272
G1 X54.091 Y62.022 E0.13909
G1 X148.161 Y62.005 E3.26787
G1 X149.691 Y62.156 E3.31901
G1 X151.094 Y62.643 E3.3684
G1 X152.398 Y63.455 E3.4195
G1 X153.519 Y64.576 E3.47223
G1 X154.32 Y65.87 E3.52284
G1 X154.832 Y67.358 E3.57518
G1 X154.957 Y68.694 E3.61981
G1 X154.934 Y101.246 E4.70249
G1 X154.802 Y102.375 E4.7403
G1 X154.329 Y103.731 E4.78807
G1 X153.724 Y104.702 E4.82612
G1 X154.146 Y105.124 E4.84597
G1 X154.949 Y106.421 E4.89671
G1 X155.46 Y107.908 E4.949
G1 X155.585 Y109.243 E4.9936
G1 X155.562 Y141.795 E6.07628
G1 X155.43 Y142.924 E6.11409
G1 X154.959 Y144.276 E6.16171
G1 X154.14 Y145.591 E6.21323
G1 X153.031 Y146.7 E6.2654
G1 X151.706 Y147.52 E6.31722
G1 X150.244 Y148.021 E6.36863
G1 X148.856 Y148.151 E6.41499
G1 X54.641 Y148.126 E9.5486
G1 X53.518 Y147.992 E9.58621
G1 X52.185 Y147.527 E9.63317
G1 X50.852 Y146.702 E9.68531
G1 X49.733 Y145.583 E9.73794
G1 X48.932 Y144.289 E9.78856
G1 X48.42 Y142.801 E9.8409
G1 X48.295 Y141.465 E9.88553
G1 X48.318 Y108.907 E10.96841
G1 X48.453 Y107.782 E11.0061
G1 X48.954 Y106.374 E11.05581
G1 X49.531 Y105.461 E11.09173
G1 X49.108 Y105.038 E11.11162
G1 X48.291 Y103.718 E11.16326
G1 X47.797 Y102.263 E11.21436
G1 X47.667 Y100.916 E11.25937
G1 X47.69 Y68.364 E12.34206
G1 X47.822 Y67.236 E12.37983
G1 X48.295 Y65.88 E12.4276
G1 X49.113 Y64.568 E12.47902
G1 X50.229 Y63.452 E12.53151
G0 F9000 X50.479 Y63.768
G1 F1800 X51.71 Y63.006 E12.57967
G1 X53.087 Y62.535 E12.62807
G1 X54.135 Y62.42 E12.66314
G1 X148.161 Y62.405 E15.79045
G1 X149.604 Y62.549 E15.83869
G1 X150.92 Y63.006 E15.88502
G1 X152.147 Y63.77 E15.9331
G1 X153.203 Y64.826 E15.98277
G1 X153.957 Y66.044 E16.03041
G1 X154.438 Y67.443 E16.07962
G1 X154.557 Y68.694 E16.12141
G1 X154.537 Y101.199 E17.20253
G1 X154.41 Y102.282 E17.2388
G1 X153.965 Y103.559 E17.28378
G1 X153.216 Y104.76 E17.33086
G1 X153.83 Y105.374 E17.35974
G1 X154.586 Y106.595 E17.4075
G1 X155.066 Y107.992 E17.45663
G1 X155.185 Y109.243 E17.49843
G1 X155.165 Y141.748 E18.57955
G1 X155.038 Y142.831 E18.61582
G1 X154.595 Y144.103 E18.66062
G1 X153.825 Y145.34 E18.70908
G1 X152.781 Y146.384 E18.75818
G1 X151.532 Y147.157 E18.80704
G1 X150.16 Y147.627 E18.85528
G1 X148.856 Y147.751 E18.89884
G1 X54.689 Y147.729 E22.03085
G1 X53.611 Y147.6 E22.06696
G1 X52.355 Y147.162 E22.1112
G1 X51.104 Y146.388 E22.16013
G1 X50.049 Y145.333 E22.20975
G1 X49.295 Y144.115 E22.2574
G1 X48.814 Y142.716 E22.3066
G1 X48.695 Y141.465 E22.3484
G1 X48.715 Y108.954 E23.42972
G1 X48.844 Y107.875 E23.46586
G1 X49.316 Y106.55 E23.51265
G1 X50.04 Y105.404 E23.55773
G1 X49.424 Y104.788 E23.58671
G1 X48.655 Y103.546 E23.63529
G1 X48.191 Y102.178 E23.68334
G1 X48.067 Y100.916 E23.72551
G1 X48.087 Y68.411 E24.80664
G1 X48.214 Y67.329 E24.84287
G1 X48.659 Y66.052 E24.88785
G1 X49.427 Y64.82 E24.93613
G1 X50.479 Y63.768 E24.98562
G0 F9000 X50.729 Y64.084
G1 F1800 X51.884 Y63.369 E25.0308
G1 X53.172 Y62.928 E25.07608
G1 X54.178 Y62.818 E25.10974
G1 X148.161 Y62.805 E28.23562
G1 X149.517 Y62.942 E28.28095
G1 X150.746 Y63.369 E28.32423
G1 X151.896 Y64.085 E28.36929
G1 X152.887 Y65.076 E28.4159
G1 X153.594 Y66.218 E28.46057
G1 X154.044 Y67.527 E28.50661
G1 X154.157 Y68.694 E28.54561
G1 X154.14 Y101.153 E29.6252
G1 X154.019 Y102.189 E29.65989
G1 X153.601 Y103.386 E29.70206
G1 X152.882 Y104.541 E29.74731
G1 X152.655 Y104.765 E29.75792
G1 X153.514 Y105.624 E29.79832
G1 X154.223 Y106.769 E29.84311
G1 X154.672 Y108.076 E29.88908
G1 X154.785 Y109.243 E29.92807
G1 X154.768 Y141.702 E31.00767
G1 X154.647 Y142.738 E31.04236
G1 X154.231 Y143.93 E31.08435
G1 X153.51 Y145.089 E31.12975
G1 X152.531 Y146.068 E31.1758
G1 X151.358 Y146.794 E31.22168
G1 X150.076 Y147.233 E31.26675
G1 X148.856 Y147.351 E31.30752
G1 X54.737 Y147.332 E34.43793
G1 X53.704 Y147.208 E34.47253
G1 X52.527 Y146.798 E34.51398
G1 X51.354 Y146.072 E34.55987
G1 X50.365 Y145.083 E34.60639
G1 X49.658 Y143.941 E34.65106
G1 X49.208 Y142.632 E34.6971
G1 X49.095 Y141.465 E34.73609
G1 X49.112 Y109.002 E35.81582
G1 X49.236 Y107.968 E35.85046
G1 X49.678 Y106.726 E35.8943
G1 X50.386 Y105.605 E35.9384
G1 X50.597 Y105.395 E35.9483
G1 X49.74 Y104.538 E35.98861
G1 X49.019 Y103.374 E36.03415
G1 X48.585 Y102.093 E36.07914
G1 X48.467 Y100.916 E36.11848
G1 X48.484 Y68.457 E37.19807
G1 X48.605 Y67.422 E37.23273
G1 X49.023 Y66.224 E37.27493
G1 X49.741 Y65.072 E37.32008
G1 X50.729 Y64.084 E37.36655
G0 F9000 X50.979 Y64.4
G1 F1800 X52.058 Y63.732 E37.40876
G1 X53.257 Y63.321 E37.45092
G1 X54.221 Y63.216 E37.48317
G1 X148.161 Y63.205 E40.60763
G1 X149.43 Y63.335 E40.65006
G1 X150.572 Y63.732 E40.69027
G1 X151.645 Y64.4 E40.73231
G1 X152.571 Y65.326 E40.77586
G1 X153.231 Y66.392 E40.81756
G1 X153.65 Y67.612 E40.86047
G1 X153.757 Y68.694 E40.89663
G1 X153.743 Y101.106 E41.97466
G1 X153.627 Y102.096 E42.00781
G1 X153.237 Y103.213 E42.04716
G1 X152.567 Y104.289 E42.08932
G1 X152.045 Y104.808 E42.1138
G1 X152.307 Y104.983 E42.12428
G1 X153.198 Y105.874 E42.16619
G1 X153.86 Y106.943 E42.20801
G1 X154.278 Y108.161 E42.25084
G1 X154.385 Y109.243 E42.28701
G1 X154.371 Y141.655 E43.36503
G1 X154.255 Y142.645 E43.39819
G1 X153.867 Y143.757 E43.43736
G1 X153.195 Y144.838 E43.47969
G1 X152.281 Y145.752 E43.52269
G1 X151.184 Y146.431 E43.5656
G1 X149.992 Y146.839 E43.6075
G1 X148.856 Y146.951 E43.64547
G1 X54.784 Y146.935 E46.77431
G1 X53.797 Y146.817 E46.80738
G1 X52.697 Y146.433 E46.84613
G1 X51.606 Y145.758 E46.8888
G1 X50.681 Y144.833 E46.93231
G1 X50.021 Y143.767 E46.97401
G1 X49.602 Y142.547 E47.01691
G1 X49.495 Y141.465 E47.05307
G1 X49.509 Y109.049 E48.13124
G1 X49.627 Y108.061 E48.16433
G1 X50.04 Y106.902 E48.20525
G1 X50.701 Y105.855 E48.24644
G1 X51.207 Y105.351 E48.27019
G1 X50.944 Y105.176 E48.2807
G1 X50.056 Y104.288 E48.32246
G1 X49.383 Y103.202 E48.36496
G1 X48.978 Y102.008 E48.40689
G1 X48.867 Y100.916 E48.4434
G1 X48.881 Y68.504 E49.52143
G1 X48.997 Y67.515 E49.55455
G1 X49.387 Y66.397 E49.59393
G1 X50.056 Y65.323 E49.63602
G1 X50.979 Y64.4 E49.67943
G0 F9000 X51.231 Y64.714
G1 F1800 X52.23 Y64.096 E49.7185
G1 X53.342 Y63.715 E49.7576
G1 X54.265 Y63.614 E49.78848
G1 X148.161 Y63.605 E52.91147
G1 X149.343 Y63.728 E52.951
G1 X150.398 Y64.095 E52.98815
G1 X151.394 Y64.715 E53.02717
G1 X152.255 Y65.576 E53.06767
G1 X152.868 Y66.566 E53.1064
G1 X153.256 Y67.697 E53.14617
G1 X153.357 Y68.694 E53.1795
G1 X153.346 Y101.06 E54.256
G1 X153.236 Y102.002 E54.28754
G1 X152.873 Y103.04 E54.32411
G1 X152.252 Y104.038 E54.36321
G1 X151.404 Y104.88 E54.40296
G1 X152.024 Y105.266 E54.42725
G1 X152.882 Y106.124 E54.46761
G1 X153.497 Y107.117 E54.50645
G1 X153.884 Y108.246 E54.54615
G1 X153.985 Y109.243 E54.57948
G1 X153.974 Y141.609 E55.65598
G1 X153.864 Y142.551 E55.68752
G1 X153.503 Y143.584 E55.72392
G1 X152.88 Y144.587 E55.76319
G1 X152.029 Y145.438 E55.80322
G1 X151.012 Y146.067 E55.84299
G1 X149.908 Y146.445 E55.8818
G1 X148.856 Y146.551 E55.91697
G1 X54.832 Y146.538 E59.04422
G1 X53.89 Y146.425 E59.07577
G1 X52.869 Y146.069 E59.11174
G1 X51.856 Y145.442 E59.15136
G1 X50.997 Y144.583 E59.19177
G1 X50.384 Y143.593 E59.2305
G1 X49.996 Y142.462 E59.27026
G1 X49.895 Y141.465 E59.30359
G1 X49.906 Y109.097 E60.38016
G1 X50.019 Y108.154 E60.41175
G1 X50.402 Y107.078 E60.44973
G1 X51.015 Y106.107 E60.48793
G1 X51.849 Y105.278 E60.52704
G1 X51.227 Y104.893 E60.55137
G1 X50.372 Y104.038 E60.59159
G1 X49.748 Y103.031 E60.63099
G1 X49.371 Y101.921 E60.66998
G1 X49.267 Y100.916 E60.70358
G1 X49.278 Y68.55 E61.78008
G1 X49.388 Y67.608 E61.81162
G1 X49.75 Y66.572 E61.84812
G1 X50.373 Y65.572 E61.88731
G1 X51.231 Y64.714 E61.92767
G0 F9000 X51.481 Y65.03
G1 F1800 X52.405 Y64.458 E61.96381
G1 X53.425 Y64.109 E61.99967
G1 X54.309 Y64.012 E62.02925
G1 X148.161 Y64.005 E65.15078
G1 X149.256 Y64.121 E65.1874
G1 X150.222 Y64.457 E65.22142
G1 X151.145 Y65.032 E65.25759
G1 X151.939 Y65.826 E65.29494
G1 X152.505 Y66.74 E65.33069
G1 X152.862 Y67.782 E65.36733
G1 X152.957 Y68.694 E65.39782
G1 X152.949 Y101.013 E66.47276
G1 X152.844 Y101.909 E66.50276
G1 X152.51 Y102.865 E66.53644
G1 X151.935 Y103.788 E66.57261
G1 X151.146 Y104.577 E66.60973
G1 X150.595 Y104.917 E66.63126
G1 X150.888 Y105.03 E66.64171
G1 X151.773 Y105.581 E66.67638
G1 X152.566 Y106.374 E66.71368
G1 X153.134 Y107.291 E66.74956
G1 X153.49 Y108.331 E66.78612
G1 X153.585 Y109.243 E66.81661
G1 X153.577 Y141.562 E67.89155
G1 X153.472 Y142.458 E67.92155
G1 X153.139 Y143.411 E67.95513
G1 X152.565 Y144.336 E67.99134
G1 X151.777 Y145.124 E68.0284
G1 X150.84 Y145.703 E68.06504
G1 X149.824 Y146.051 E68.10076
G1 X148.856 Y146.151 E68.13312
G1 X54.879 Y146.141 E71.25881
G1 X53.984 Y146.034 E71.28879
G1 X53.039 Y145.704 E71.32208
G1 X52.108 Y145.128 E71.3585
G1 X51.313 Y144.333 E71.39589
G1 X50.747 Y143.419 E71.43165
G1 X50.39 Y142.377 E71.46828
G1 X50.295 Y141.465 E71.49878
G1 X50.303 Y109.144 E72.57378
G1 X50.41 Y108.247 E72.60383
G1 X50.764 Y107.254 E72.63889
G1 X51.329 Y106.359 E72.67409
G1 X52.112 Y105.577 E72.7109
G1 X52.656 Y105.241 E72.73217
G1 X52.371 Y105.131 E72.74233
G1 X51.479 Y104.579 E72.77722
G1 X50.688 Y103.788 E72.81442
G1 X50.113 Y102.86 E72.85073
G1 X49.764 Y101.834 E72.88678
G1 X49.667 Y100.916 E72.91748
G1 X49.675 Y68.597 E73.99241
G1 X49.78 Y67.701 E74.02242
G1 X50.114 Y66.745 E74.0561
G1 X50.688 Y65.823 E74.09222
G1 X51.481 Y65.03 E74.12952
G0 F9000 X51.731 Y65.346
G1 F1800 X52.579 Y64.821 E74.1627
G1 X53.51 Y64.502 E74.19543
G1 X54.352 Y64.41 E74.2236
G1 X148.161 Y64.405 E77.3437
G1 X149.168 Y64.514 E77.37739
G1 X150.049 Y64.821 E77.40842
G1 X150.894 Y65.347 E77.44152
G1 X151.623 Y66.076 E77.47581
G1 X152.142 Y66.914 E77.5086
G1 X152.468 Y67.866 E77.54207
G1 X152.557 Y68.694 E77.56977
G1 X152.552 Y100.967 E78.64317
G1 X152.453 Y101.815 E78.67157
G1 X152.146 Y102.692 E78.70247
G1 X151.62 Y103.537 E78.73558
G1 X150.894 Y104.263 E78.76972
G1 X150.043 Y104.789 E78.803
G1 X149.378 Y105.016 E78.82637
G1 X149.797 Y105.063 E78.84039
G1 X150.677 Y105.37 E78.87139
G1 X151.522 Y105.896 E78.9045
G1 X152.252 Y106.626 E78.93883
G1 X152.77 Y107.463 E78.97157
G1 X153.096 Y108.415 E79.00504
G1 X153.185 Y109.243 E79.03274
G1 X153.18 Y141.516 E80.10614
G1 X153.081 Y142.364 E80.13454
G1 X152.775 Y143.238 E80.16534
G1 X152.25 Y144.085 E80.19848
G1 X151.525 Y144.81 E80.23259
G1 X150.669 Y145.339 E80.26605
G1 X149.74 Y145.657 E80.29871
G1 X148.856 Y145.751 E80.32828
G1 X54.927 Y145.744 E83.45237
G1 X54.077 Y145.642 E83.48085
G1 X53.211 Y145.34 E83.51135
G1 X52.358 Y144.812 E83.54472
G1 X51.629 Y144.083 E83.57901
G1 X51.11 Y143.245 E83.61179
G1 X50.784 Y142.293 E83.64526
G1 X50.695 Y141.465 E83.67296
G1 X50.7 Y109.192 E84.74636
G1 X50.802 Y108.34 E84.7749
G1 X51.127 Y107.428 E84.8071
G1 X51.641 Y106.613 E84.83915
G1 X52.362 Y105.893 E84.87304
G1 X53.202 Y105.373 E84.9059
G1 X53.871 Y105.144 E84.92942
G1 X53.448 Y105.093 E84.94359
G1 X52.582 Y104.791 E84.97409
G1 X51.729 Y104.263 E85.00746
G1 X51.004 Y103.538 E85.04156
G1 X50.478 Y102.689 E85.07478
G1 X50.157 Y101.747 E85.10788
G1 X50.067 Y100.916 E85.13568
G1 X50.072 Y68.643 E86.20909
G1 X50.171 Y67.795 E86.23748
G1 X50.478 Y66.918 E86.26839
G1 X51.003 Y66.074 E86.30145
G1 X51.731 Y65.346 E86.33569
G0 F9000 X51.983 Y65.66
G1 F1800 X52.751 Y65.185 E86.36572
G1 X53.595 Y64.896 E86.3954
G1 X54.396 Y64.808 E86.4222
G1 X148.161 Y64.805 E89.54083
G1 X149.08 Y64.907 E89.57159
G1 X149.876 Y65.185 E89.59963
G1 X150.643 Y65.662 E89.62967
G1 X151.307 Y66.326 E89.6609
G1 X151.779 Y67.088 E89.69072
G1 X152.074 Y67.95 E89.72102
G1 X152.157 Y68.694 E89.74592
G1 X152.155 Y100.92 E90.81776
G1 X152.061 Y101.722 E90.84462
G1 X151.782 Y102.519 E90.8727
G1 X151.305 Y103.286 E90.90274
G1 X150.642 Y103.949 E90.93393
G1 X149.874 Y104.424 E90.96396
G1 X149.025 Y104.714 E90.9938
G1 X148.228 Y104.802 E91.02047
G1 X54.346 Y104.798 E94.143
G1 X53.542 Y104.702 E94.16993
G1 X52.752 Y104.426 E94.19777
G1 X51.981 Y103.949 E94.22792
G1 X51.32 Y103.288 E94.25901
G1 X50.843 Y102.518 E94.28914
G1 X50.55 Y101.66 E94.31929
G1 X50.467 Y100.916 E94.34419
G1 X50.469 Y68.69 E95.41603
G1 X50.563 Y67.888 E95.44289
G1 X50.842 Y67.091 E95.47098
G1 X51.318 Y66.325 E95.50097
G1 X51.983 Y65.66 E95.53225
G1 F2400 E94.73225
G0 F9000 X51.156 Y67.213
G0 X50.886 Y67.989
G0 X50.798 Y68.768
G0 X50.798 Y100.842
G0 X50.886 Y101.621
G0 X51.156 Y102.397
G0 X51.593 Y103.092
G0 X52.117 Y103.616
G0 X55.025 Y105.357
G1 F2400 E95.53225
G1 F1800 X148.789 Y105.354 E98.65085
G1 X149.708 Y105.456 E98.68161
G1 X150.504 Y105.734 E98.70965
G1 X151.271 Y106.211 E98.73969
G1 X151.936 Y106.876 E98.77097
G1 X152.407 Y107.637 E98.80074
G1 X152.702 Y108.499 E98.83104
G1 X152.785 Y109.243 E98.85594
G1 X152.783 Y141.469 E99.92778
G1 X152.689 Y142.271 E99.95464
G1 X152.411 Y143.065 E99.98262
G1 X151.934 Y143.835 E100.01275
G1 X151.273 Y144.496 E100.04384
G1 X150.496 Y144.976 E100.07421
G1 X149.657 Y145.263 E100.10371
G1 X148.856 Y145.351 E100.13051
G1 X54.974 Y145.347 E103.25304
G1 X54.171 Y145.251 E103.27993
G1 X53.381 Y144.975 E103.30777
G1 X52.61 Y144.498 E103.33792
G1 X51.945 Y143.833 E103.3692
G1 X51.473 Y143.071 E103.39901
G1 X51.178 Y142.209 E103.42932
G1 X51.095 Y141.465 E103.45422
G1 X51.097 Y109.239 E104.52606
G1 X51.193 Y108.433 E104.55305
G1 X51.49 Y107.601 E104.58244
G1 X51.953 Y106.867 E104.6113
G1 X52.612 Y106.209 E104.64227
G1 X53.376 Y105.736 E104.67216
G1 X54.228 Y105.444 E104.70212
G1 X55.025 Y105.357 E104.72878
G0 F9000 X55.069 Y106.155
G1 F1800 X148.789 Y106.154 E107.84592
G1 X149.523 Y106.24 E107.8705
G1 X150.158 Y106.462 E107.89288
G1 X150.769 Y106.841 E107.91679
G1 X151.304 Y107.376 E107.94195
G1 X151.682 Y107.986 E107.96582
G1 X151.915 Y108.667 E107.98976
G1 X151.989 Y109.331 E108.01198
G1 X151.989 Y141.375 E109.07777
G1 X151.905 Y142.085 E109.10155
G1 X151.682 Y142.722 E109.124
G1 X151.304 Y143.333 E109.14789
G1 X150.769 Y143.868 E109.17306
G1 X150.158 Y144.246 E109.19696
G1 X149.479 Y144.478 E109.22082
G1 X148.811 Y144.553 E109.24318
G1 X55.069 Y144.553 E112.36105
G1 X54.358 Y144.468 E112.38487
G1 X53.723 Y144.246 E112.40724
G1 X53.112 Y143.868 E112.43114
G1 X52.577 Y143.333 E112.4563
G1 X52.198 Y142.722 E112.48022
G1 X51.965 Y142.041 E112.50416
G1 X51.891 Y141.377 E112.52638
G1 X51.891 Y109.333 E113.59216
G1 X51.975 Y108.623 E113.61594
G1 X52.218 Y107.945 E113.6399
G1 X52.577 Y107.375 E113.6623
G1 X53.112 Y106.841 E113.68745
G1 X53.723 Y106.462 E113.71136
G1 X54.402 Y106.23 E113.73522
G1 X55.069 Y106.155 E113.75755
G0 F9000 X55.069 Y105.755
G1 F1800 X148.789 Y105.754 E116.87469
G1 X149.615 Y105.848 E116.90234
G1 X150.331 Y106.098 E116.92756
G1 X151.02 Y106.526 E116.95454
G1 X151.62 Y107.126 E116.98276
G1 X152.044 Y107.811 E117.00956
G1 X152.309 Y108.584 E117.03674
G1 X152.387 Y109.287 E117.06026
G1 X152.386 Y141.422 E118.12908
G1 X152.297 Y142.178 E118.15439
G1 X152.047 Y142.892 E118.17956
G1 X151.618 Y143.585 E118.20666
G1 X151.021 Y144.182 E118.23475
G1 X150.327 Y144.611 E118.26188
G1 X149.566 Y144.871 E118.28863
G1 X148.856 Y144.951 E118.31239
G1 X55.022 Y144.95 E121.43333
G1 X54.264 Y144.859 E121.45872
G1 X53.553 Y144.611 E121.48376
G1 X52.86 Y144.182 E121.51087
G1 X52.261 Y143.583 E121.53905
G1 X51.836 Y142.897 E121.56589
